X:1
T:Broken token - hard
C:Taken down from Robt. Hard, by H.Fl.S. Oct. 1888
%%VWML:SBG-1-1-227-0
F:http://www.vwml.org/record/SBG/1/1/227
Z:Original Sibleius Transcription by Martin and Shan Graebe
M:3/4
L:1/8
K:Em
BBB |B2  AG AB | E2zDGB |d2  ed cd |B2zddd| G2  FE AB | 
c4 B>A |BE  E2 D2 | G2 A2  (3Bcd |ed !fermata!e2z c|B3  AGF|E4 |
T:Broken token - ballad singer durham
T:Taken down from a ballad-singer in the market, Durham, in 1830-5 
T:by S. Reay, song-school, Newark on Trent.
M:3/4
L:1/8
K:G
G2| BB  B2 AB | GF2< E2 D| GB d2 ed | cd B2z c| dB  G2 FE |
AB c2  BA| BE  ED z2|\
M:2/4
 G>A (3Bcd |ed ec | B>A GF | G2 ||



